svgs/kvaesitso.svg

<svg xmlns="http://www.w3.org/2000/svg" viewBox="0 0 192 192"><path d="M29.183 164.462c.149-10.754.223-11.674 1.08-13.552 1.281-2.806 4.421-6.013 7.245-7.4l2.382-1.17h111.778l2.223 1.005c1.415.639 3.114 1.957 4.673 3.623 3.717 3.973 3.9 4.825 3.9 18.072V176H29.023Zm9.776-37.515c-4.076-1.414-6.865-3.975-8.732-8.016-.875-1.892-.929-2.683-1.059-15.332-.116-11.312-.032-13.727.555-15.905 1.21-4.49 5.253-8.679 9.677-10.023 1.38-.419 13.664-.535 56.802-.535h55.042l2.664 1.23c3.37 1.556 6.452 4.821 7.7 8.157.86 2.297.892 3.002.771 16.617-.121 13.589-.167 14.308-1.052 16.224-1.18 2.554-4.397 5.768-7.119 7.112l-2.117 1.045-55.465.095c-52.507.09-55.583.055-57.667-.669Zm26.823-8.835c2.363-1.263 4.271-3.664 5.063-6.371.514-1.755.623-3.966.515-10.373-.156-9.202-.431-10.186-3.651-13.096-2.692-2.432-3.9-2.668-13.635-2.668h-8.68l-2.224 1.233c-1.224.677-2.714 1.873-3.311 2.656-2.11 2.766-2.373 4.395-2.223 13.763.118 7.407.246 8.804.926 10.081 1.478 2.775 3.663 4.606 6.618 5.547.583.186 5.062.299 9.952.253 8.288-.078 9.011-.148 10.65-1.025Zm40.053.548c2.557-.912 4.401-2.604 5.682-5.214 1.194-2.429 1.198-2.469 1.198-10.906 0-9.627-.24-10.774-2.842-13.597-2.764-2.999-4.222-3.339-14.306-3.339-8.639 0-8.69.006-10.876 1.158-2.339 1.233-3.935 2.999-4.988 5.52-.832 1.991-.934 17.237-.134 19.947.638 2.157 4.182 5.827 6.26 6.482 2.227.702 18.01.662 20.006-.051Zm41.425.024c2.43-.869 4.495-2.709 5.657-5.042 1.054-2.115 1.079-2.37 1.076-11.079-.004-8.461-.055-9.023-.999-11.049-1.066-2.289-2.966-4.147-5.349-5.23-2.189-.995-18.574-.986-20.777.011-2.388 1.081-4.434 3.137-5.525 5.551-.949 2.099-1.007 2.697-1.007 10.482 0 6.859.126 8.583.743 10.182.913 2.364 3.865 5.341 6.077 6.13 2.236.797 17.902.831 20.104.044ZM23.667 67.965c-2.45-.43-4.363-1.678-5.841-3.811-1.091-1.575-1.223-2.118-1.223-5.046 0-2.965.122-3.453 1.27-5.071 1.472-2.073 2.772-2.866 15.878-9.677 12.095-6.286 30.944-16.125 35.354-18.454 17.147-9.056 18.275-9.493 25.404-9.828 8.511-.4 10.165.244 36.624 14.261a3559.374 3559.374 0 0 0 17.359 9.107c22.642 11.797 23.3 12.166 24.756 13.867 3.946 4.61 2.244 11.765-3.356 14.105-1.9.794-4.973.883-6.775.198-.675-.257-5.147-2.527-9.937-5.047-6.217-3.266-12.437-6.527-18.66-9.78a6262.103 6262.103 0 0 1-17.783-9.334c-17.485-9.227-17.152-9.082-20.958-9.082h-3.387l-11.856 6.203C32.452 65.739 28.53 67.749 26.992 68.021c-.824.146-2.32.121-3.325-.056Z"/></svg>

<svg
    xmlns="http://www.w3.org/2000/svg"
    viewBox="0 0 192 192"
    id="vector">
    <path
        id="path"
        d="M 29.183 164.462 C 29.332 153.708 29.406 152.788 30.263 150.91 C 31.544 148.104 34.684 144.897 37.508 143.51 L 39.89 142.34 L 151.668 142.34 L 153.891 143.345 C 155.306 143.984 157.005 145.302 158.564 146.968 C 162.281 150.941 162.464 151.793 162.464 165.04 L 162.464 176 L 29.023 176 Z M 38.959 126.947 C 34.883 125.533 32.094 122.972 30.227 118.931 C 29.352 117.039 29.298 116.248 29.168 103.599 C 29.052 92.287 29.136 89.872 29.723 87.694 C 30.933 83.204 34.976 79.015 39.4 77.671 C 40.78 77.252 53.064 77.136 96.202 77.136 L 151.244 77.136 L 153.908 78.366 C 157.278 79.922 160.36 83.187 161.608 86.523 C 162.468 88.82 162.5 89.525 162.379 103.14 C 162.258 116.729 162.212 117.448 161.327 119.364 C 160.147 121.918 156.93 125.132 154.208 126.476 L 152.091 127.521 L 96.626 127.616 C 44.119 127.706 41.043 127.671 38.959 126.947 Z M 65.782 118.112 C 68.145 116.849 70.053 114.448 70.845 111.741 C 71.359 109.986 71.468 107.775 71.36 101.368 C 71.204 92.166 70.929 91.182 67.709 88.272 C 65.017 85.84 63.809 85.604 54.074 85.604 L 45.394 85.604 L 43.17 86.837 C 41.946 87.514 40.456 88.71 39.859 89.493 C 37.749 92.259 37.486 93.888 37.636 103.256 C 37.754 110.663 37.882 112.06 38.562 113.337 C 40.04 116.112 42.225 117.943 45.18 118.884 C 45.763 119.07 50.242 119.183 55.132 119.137 C 63.42 119.059 64.143 118.989 65.782 118.112 Z M 105.835 118.66 C 108.392 117.748 110.236 116.056 111.517 113.446 C 112.711 111.017 112.715 110.977 112.715 102.54 C 112.715 92.913 112.475 91.766 109.873 88.943 C 107.109 85.944 105.651 85.604 95.567 85.604 C 86.928 85.604 86.877 85.61 84.691 86.762 C 82.352 87.995 80.756 89.761 79.703 92.282 C 78.871 94.273 78.769 109.519 79.569 112.229 C 80.207 114.386 83.751 118.056 85.829 118.711 C 88.056 119.413 103.839 119.373 105.835 118.66 Z M 147.26 118.684 C 149.69 117.815 151.755 115.975 152.917 113.642 C 153.971 111.527 153.996 111.272 153.993 102.563 C 153.989 94.102 153.938 93.54 152.994 91.514 C 151.928 89.225 150.028 87.367 147.645 86.284 C 145.456 85.289 129.071 85.298 126.868 86.295 C 124.48 87.376 122.434 89.432 121.343 91.846 C 120.394 93.945 120.336 94.543 120.336 102.328 C 120.336 109.187 120.462 110.911 121.079 112.51 C 121.992 114.874 124.944 117.851 127.156 118.64 C 129.392 119.437 145.058 119.471 147.26 118.684 Z M 23.667 67.965 C 21.217 67.535 19.304 66.287 17.826 64.154 C 16.735 62.579 16.603 62.036 16.603 59.108 C 16.603 56.143 16.725 55.655 17.873 54.037 C 19.345 51.964 20.645 51.171 33.751 44.36 C 45.846 38.074 64.695 28.235 69.105 25.906 C 86.252 16.85 87.38 16.413 94.509 16.078 C 103.02 15.678 104.674 16.322 131.133 30.339 C 134.975 32.375 142.787 36.473 148.492 39.446 C 171.134 51.243 171.792 51.612 173.248 53.313 C 177.194 57.923 175.492 65.078 169.892 67.418 C 167.992 68.212 164.919 68.301 163.117 67.616 C 162.442 67.359 157.97 65.089 153.18 62.569 C 146.963 59.303 140.743 56.042 134.52 52.789 C 128.587 49.687 122.66 46.576 116.737 43.455 C 99.252 34.228 99.585 34.373 95.779 34.373 L 92.392 34.373 L 80.536 40.576 C 32.452 65.739 28.53 67.749 26.992 68.021 C 26.168 68.167 24.672 68.142 23.667 67.965 Z"
        fill="#000000"
        stroke-width="12"/>
</svg>
